svg/liquor.svg

<svg xmlns="http://www.w3.org/2000/svg" viewBox="0 0 24 24"><path d="M3 14c0 1.3.8 2.4 2 2.8V20H3v2h6v-2H7v-3.2c1.2-.4 2-1.5 2-2.8V6H3zm2-6h2v3H5zm15.6.5-1-.3c-.3-.1-.6-.5-.6-.9V3c0-.5-.5-1-1-1h-3c-.6 0-1 .5-1 1v4.3c0 .4-.3.8-.7 1l-.9.3c-.8.3-1.4 1-1.4 1.9V20c0 1.1.9 2 2 2h7c1.1 0 2-.9 2-2v-9.6c0-.8-.5-1.6-1.4-1.9M16 4h1v1h-1zm-3 6.4.9-.3c1.3-.4 2.1-1.5 2.1-2.8V7h1v.3c0 1.3.8 2.4 2 2.8l1 .3V12h-7zm7 9.6h-7v-2h7z"/></svg>

<svg xmlns="http://www.w3.org/2000/svg" id="mdi-liquor" viewBox="0 0 24 24"><path d="M3 14C3 15.3 3.8 16.4 5 16.8V20H3V22H9V20H7V16.8C8.2 16.4 9 15.3 9 14V6H3V14M5 8H7V11H5V8M20.6 8.5L19.6 8.2C19.3 8.1 19 7.7 19 7.3V3C19 2.5 18.5 2 18 2H15C14.4 2 14 2.5 14 3V7.3C14 7.7 13.7 8.1 13.3 8.3L12.4 8.6C11.6 8.9 11 9.6 11 10.5V20C11 21.1 11.9 22 13 22H20C21.1 22 22 21.1 22 20V10.4C22 9.6 21.5 8.8 20.6 8.5M16 4H17V5H16V4M13 10.4L13.9 10.1C15.2 9.7 16 8.6 16 7.3V7H17V7.3C17 8.6 17.8 9.7 19 10.1L20 10.4V12H13V10.4M20 20H13V18H20V20Z" /></svg>
